X:1
T:My God, How Wonderful You Are
T:Text: Fredrick W. Faber, 1849, alt. Tune: Thomas Turton, 1860
T:CM ST. ETHELDREDA www.hymnary.org/text/my_god_how_wonderful_thou_art
T:My God, How Wonderful You Are
T:This hymn is in the public domain. You may freely use this score for personal and congregational worship. If you reproduce the score, please credit Hymnary.org as the source. 
T:This hymn is in the public domain. You may freely use this score for personal and congregational worship. If you reproduce the score, please credit Hymnary.org as the source. 
Z:This hymn is in the public domain. You may freely use this score for personal and congregational worship. If you reproduce the score, please credit Hymnary.org as the source.
%%score ( 1 2 ) ( 3 4 )
L:1/8
M:4/4
K:Eb
V:1 treble nm="SOPRANO ALTO" snm="S. A."
V:2 treble 
V:3 bass nm="TENOR BASS" snm="T. B."
V:4 bass 
V:1
"^1""^2""^3""^4" E2 | E2 F2 G2 F2 | E2 D2 E2 F2 | G2 B2 A2 G2 | F6 |1 G2 | A2 c2 B2 D2 | %7
w: My|God, how won- der-|ful you are; your|maj- es- ty, how|bright!|How|beau- ti- ful your|
w: How|won- der- ful, how|beau- ti- ful the|sight of you must|be,|your|end- less wis- dom,|
w: O|how I fear you,|liv- ing God, with|deep- est, ten- derest|fears,|and|wor- ship you with|
w: Yet|I may love you|too, O Lord, al-|might- y as you|are,|for|you have stooped to|
 E2 A2 G2 B2 | c2 A2 G2 F2 | E6 x2 |] %10
w: mer- cy seat in|depths of burn- ing|light!|
w: bound- less power, and|awe- some pu- ri-|ty!|
w: trem- bling hope and|pen- i- ten- tial|tears!|
w: ask of me the|love of my poor|heart.|
V:2
 B,2 | C2 D2 E2 C2 | B,2 B,2 B,2 D2 | E2 E2 CD E2 | D6 |1 E2 | E2 E2 D2 B,A, | G,2 B,2 B,2 E2 | %8
 E2 E2 E2 D2 | x6 x2 |] %10
V:3
 G,2 | G,2 B,2 B,2 A,2 | G,2 F,2 G,2 B,2 | B,2 G,2 A,2 B,2 | B,6 |1 B,2 | %6
 A,2 A,2 F,2 F,2"^5 No earthly father loves like you,no mother half so mildbears and forbears as you have donewith me, your sinful child.6 Father of Jesus, Love divine,great King upon your throne,what joy to see you as you areand worship you alone!" | %7
 E,2 F,2 E,2 B,2 | A,2 A,2 B,3 A, | G,6 x2 |] %10
V:4
 E,2 | C,2 B,,2 E,2 A,,2 | B,,2 B,,2 E,2 B,,2 | E,2 G,2 F,2 E,2 | B,,6 |1 E,2 | %6
 C,2 A,,2 B,,2 B,,2 | C,2 D,2 E,2 G,,2 | A,,2 C,2 B,,2 B,,2 | E,6 x2 |] %10

